austria/municipalities/41823.svg

<svg xmlns="http://www.w3.org/2000/svg" width="447" height="544" style="shape-rendering:geometricPrecision;text-rendering:geometricPrecision;image-rendering:optimizeQuality;fill-rule:evenodd;clip-rule:evenodd"><path style="opacity:1" fill="#1d1c1f" d="M-.5-.5h447v346c-1.717 3.345-2.384 7.011-2 11-1.424 2.015-2.09 4.348-2 7-.459 6.309-1.793 12.309-4 18-1.777 3.005-2.777 6.338-3 10-.934 1.068-1.268 2.401-1 4-1.745 1.533-2.745 3.533-3 6a660.747 660.747 0 0 1-10 23c-1.406.473-2.073 1.473-2 3-40.047 68.547-99.713 107.214-179 116h-37c-63.333-6.913-115.166-34.913-155.5-84a661.519 661.519 0 0 0-16.5-24c.073-1.527-.594-2.527-2-3-.596-2.245-1.596-4.245-3-6 .073-1.527-.594-2.527-2-3l-7.5-15a157.694 157.694 0 0 1-8.5-25c-1.065-6.927-2.732-13.594-5-20-.841-1.879-1.175-3.879-1-6l-1-14c-.651-58.146-1.318-116.146-2-174V-.5z"/><path style="opacity:1" fill="#07653c" d="M438.5 173.5V8.5H8.5v165a6889.58 6889.58 0 0 1-1-166h432a6891.13 6891.13 0 0 1-1 166z"/><path style="opacity:1" fill="#008248" d="M438.5 173.5c-4.259 7.141-10.593 11.308-19 12.5-18.33.5-36.664.667-55 .5.613-5.771-.054-11.104-2-16a223.847 223.847 0 0 1-14-11.5c-1-.667-2-.667-3 0a378.196 378.196 0 0 0-14.5 11.5 128.507 128.507 0 0 0-.5 16h-213c.613-5.771-.054-11.104-2-16a223.847 223.847 0 0 1-14-11.5c-1-.667-2-.667-3 0A146.205 146.205 0 0 0 83 171.5c-.5 4.989-.666 9.989-.5 15-19.67.167-39.336 0-59-.5-6.73-2.242-11.73-6.408-15-12.5V8.5h430v165z"/><path style="opacity:1" fill="#fefefe" d="M108.5 194.5c76.498.999 153.165 1.333 230 1v-20a88.376 88.376 0 0 1 8.5-7 65.028 65.028 0 0 1 7.5 6c.997 6.634 1.33 13.3 1 20 22.669.167 45.336 0 68-.5 5.084-1.377 9.751-3.543 14-6.5a2212.178 2212.178 0 0 1 0 133c-4.249-2.957-8.916-5.123-14-6.5a2311.03 2311.03 0 0 0-68-.5c.33 6.7-.003 13.366-1 20a65.028 65.028 0 0 1-7.5 6 3401.34 3401.34 0 0 1-8-6c-.5-6.658-.666-13.325-.5-20h-230c.33 6.7-.003 13.366-1 20a65.028 65.028 0 0 1-7.5 6 36.525 36.525 0 0 1-9-7c-.5-6.325-.666-12.658-.5-19-22.67-.167-45.336 0-68 .5-4.918 1.126-9.252 3.292-13 6.5a2211.63 2211.63 0 0 1 0-133c3.748 3.208 8.082 5.374 13 6.5 22.664.5 45.33.667 68 .5-.166-6.342 0-12.675.5-19a134.097 134.097 0 0 0 8.5-7 35.061 35.061 0 0 1 8 6c.997 6.634 1.33 13.3 1 20z"/><path style="opacity:1" fill="#4b4a4c" d="M-.5 169.5c.682 57.854 1.349 115.854 2 174l-2-3v-171z"/><path style="opacity:1" fill="#0b5736" d="M362.5 170.5c1.946 4.896 2.613 10.229 2 16a777.189 777.189 0 0 1-2-16z"/><path style="opacity:1" fill="#095d38" d="M115.5 170.5c1.946 4.896 2.613 10.229 2 16a777.189 777.189 0 0 1-2-16z"/><path style="opacity:1" fill="#454346" d="M8.5 186.5a4489.588 4489.588 0 0 0-1 134 2282.782 2282.782 0 0 1 0-135c.607.124.94.457 1 1z"/><path style="opacity:1" fill="#bebdbe" d="M8.5 186.5c.667 0 1 .333 1 1a2211.63 2211.63 0 0 0 0 133c-.667 1.333-1.333 1.333-2 0-.332-44.836.001-89.503 1-134z"/><path style="opacity:1" fill="#9a999a" d="M437.5 187.5c.06-.543.393-.876 1-1 1.333 45 1.333 90 0 135-.607-.124-.94-.457-1-1a2212.178 2212.178 0 0 0 0-133z"/><path style="opacity:1" fill="#c2c1c2" d="M338.5 175.5v20c-76.835.333-153.502-.001-230-1h229c-.323-6.522.01-12.855 1-19z"/><path style="opacity:1" fill="#0589c0" d="M330.5 336.5c-.986-4.47-1.319-9.137-1-14h-212c.319 4.863-.014 9.53-1 14v-15h214v15z"/><path style="opacity:1" fill="#0685ba" d="M424.5 323.5a970.02 970.02 0 0 0-60-1c.319 4.863-.014 9.53-1 14v-15c19.669-.167 39.336 0 59 .5.916.278 1.582.778 2 1.5z"/><path style="opacity:1" fill="#009dde" d="M116.5 336.5c.986-4.47 1.319-9.137 1-14h212c-.319 4.863.014 9.53 1 14a95.18 95.18 0 0 0 16.5 13 324.418 324.418 0 0 0 16.5-13c.986-4.47 1.319-9.137 1-14a970.02 970.02 0 0 1 60 1c4.476 1.071 8.143 3.404 11 7 1.392 2.057 2.059 4.391 2 7a77.053 77.053 0 0 0-1 13c-3.616 27.347-12.116 53.013-25.5 77-53.336 82.498-129.169 117.331-227.5 104.5C99.512 513.005 43.679 462.838 16 381.5a202.284 202.284 0 0 1-5.5-29 176.089 176.089 0 0 1-1-20c3.35-5.175 8.017-8.675 14-10.5 19.664-.5 39.33-.667 59-.5-.166 5.011 0 10.011.5 15A138.713 138.713 0 0 0 98.5 349c1 .667 2 .667 3 0a260.739 260.739 0 0 1 15-12.5z"/><path style="opacity:1" fill="#0c6a93" d="M435.5 330.5c2.488 1.556 3.488 3.889 3 7-.271 4.536-.938 8.869-2 13a77.053 77.053 0 0 1 1-13c.059-2.609-.608-4.943-2-7z"/><path style="opacity:1" fill="#fdfdfd" d="M-.5 344.5a315.74 315.74 0 0 0 3 13c-.175 2.121.159 4.121 1 6 .75 7.003 2.417 13.67 5 20a157.694 157.694 0 0 0 8.5 25l7.5 15c-.073 1.527.594 2.527 2 3 1.404 1.755 2.404 3.755 3 6-.073 1.527.594 2.527 2 3a661.519 661.519 0 0 1 16.5 24c40.334 49.087 92.167 77.087 155.5 84H-.5v-199z"/><path style="opacity:1" fill="#878687" d="m-.5 340.5 2 3 1 14a315.74 315.74 0 0 1-3-13v-4z"/><path style="opacity:1" fill="#0b729e" d="M9.5 332.5a176.089 176.089 0 0 0 1 20c-1.497-3.723-2.163-7.723-2-12 .003-2.855.336-5.522 1-8z"/><path style="opacity:1" fill="#fdfdfd" d="M446.5 345.5v198h-206c79.287-8.786 138.953-47.453 179-116 1.406-.473 2.073-1.473 2-3a660.747 660.747 0 0 0 10-23c1.745-1.533 2.745-3.533 3-6-.268-1.599.066-2.932 1-4 1.777-3.005 2.777-6.338 3-10 2.207-5.691 3.541-11.691 4-18 1.424-2.015 2.09-4.348 2-7-.384-3.989.283-7.655 2-11z"/><path style="opacity:1" fill="#777677" d="M444.5 356.5c.09 2.652-.576 4.985-2 7-.09-2.652.576-4.985 2-7z"/><path style="opacity:1" fill="#7e7c7e" d="M3.5 363.5c2.268 6.406 3.935 13.073 5 20-2.583-6.33-4.25-12.997-5-20z"/><path style="opacity:1" fill="#848385" d="M438.5 381.5c-.223 3.662-1.223 6.995-3 10 .223-3.662 1.223-6.995 3-10z"/><path style="opacity:1" fill="#838284" d="M434.5 395.5c-.255 2.467-1.255 4.467-3 6 .255-2.467 1.255-4.467 3-6z"/><path style="opacity:1" fill="#818081" d="M24.5 423.5c1.406.473 2.073 1.473 2 3-1.406-.473-2.073-1.473-2-3z"/><path style="opacity:1" fill="#878788" d="M421.5 424.5c.073 1.527-.594 2.527-2 3-.073-1.527.594-2.527 2-3z"/><path style="opacity:1" fill="#8f8e90" d="M29.5 432.5c1.406.473 2.073 1.473 2 3-1.406-.473-2.073-1.473-2-3z"/></svg>

<?xml version="1.0" encoding="UTF-8"?>
<!DOCTYPE svg PUBLIC "-//W3C//DTD SVG 1.1//EN" "http://www.w3.org/Graphics/SVG/1.1/DTD/svg11.dtd">
<svg xmlns="http://www.w3.org/2000/svg" version="1.1" width="447px" height="544px" style="shape-rendering:geometricPrecision; text-rendering:geometricPrecision; image-rendering:optimizeQuality; fill-rule:evenodd; clip-rule:evenodd" xmlns:xlink="http://www.w3.org/1999/xlink">
<g><path style="opacity:1" fill="#1d1c1f" d="M -0.5,-0.5 C 148.5,-0.5 297.5,-0.5 446.5,-0.5C 446.5,114.833 446.5,230.167 446.5,345.5C 444.783,348.845 444.116,352.511 444.5,356.5C 443.076,358.515 442.41,360.848 442.5,363.5C 442.041,369.809 440.707,375.809 438.5,381.5C 436.723,384.505 435.723,387.838 435.5,391.5C 434.566,392.568 434.232,393.901 434.5,395.5C 432.755,397.033 431.755,399.033 431.5,401.5C 428.318,409.216 424.985,416.883 421.5,424.5C 420.094,424.973 419.427,425.973 419.5,427.5C 379.453,496.047 319.787,534.714 240.5,543.5C 228.167,543.5 215.833,543.5 203.5,543.5C 140.167,536.587 88.3339,508.587 48,459.5C 42.637,451.322 37.137,443.322 31.5,435.5C 31.573,433.973 30.9063,432.973 29.5,432.5C 28.9044,430.255 27.9044,428.255 26.5,426.5C 26.573,424.973 25.9063,423.973 24.5,423.5C 22.0266,418.553 19.5266,413.553 17,408.5C 13.4738,400.422 10.6405,392.089 8.5,383.5C 7.43497,376.573 5.76831,369.906 3.5,363.5C 2.65859,361.621 2.32526,359.621 2.5,357.5C 2.16667,352.833 1.83333,348.167 1.5,343.5C 0.848979,285.354 0.182312,227.354 -0.5,169.5C -0.5,112.833 -0.5,56.1667 -0.5,-0.5 Z"/></g>
<g><path style="opacity:1" fill="#07653c" d="M 438.5,173.5 C 438.5,118.5 438.5,63.5 438.5,8.5C 295.167,8.5 151.833,8.5 8.5,8.5C 8.5,63.5 8.5,118.5 8.5,173.5C 7.50102,118.336 7.16768,63.0025 7.5,7.5C 151.5,7.5 295.5,7.5 439.5,7.5C 439.832,63.0025 439.499,118.336 438.5,173.5 Z"/></g>
<g><path style="opacity:1" fill="#008248" d="M 438.5,173.5 C 434.241,180.641 427.907,184.808 419.5,186C 401.17,186.5 382.836,186.667 364.5,186.5C 365.113,180.729 364.446,175.396 362.5,170.5C 357.707,166.879 353.04,163.046 348.5,159C 347.5,158.333 346.5,158.333 345.5,159C 340.576,162.713 335.742,166.546 331,170.5C 330.501,175.823 330.334,181.156 330.5,186.5C 259.5,186.5 188.5,186.5 117.5,186.5C 118.113,180.729 117.446,175.396 115.5,170.5C 110.707,166.879 106.04,163.046 101.5,159C 100.5,158.333 99.5,158.333 98.5,159C 93.0589,162.807 87.8922,166.973 83,171.5C 82.5007,176.489 82.3341,181.489 82.5,186.5C 62.8305,186.667 43.1638,186.5 23.5,186C 16.7698,183.758 11.7698,179.592 8.5,173.5C 8.5,118.5 8.5,63.5 8.5,8.5C 151.833,8.5 295.167,8.5 438.5,8.5C 438.5,63.5 438.5,118.5 438.5,173.5 Z"/></g>
<g><path style="opacity:1" fill="#fefefe" d="M 108.5,194.5 C 184.998,195.499 261.665,195.833 338.5,195.5C 338.5,188.833 338.5,182.167 338.5,175.5C 341.155,173.017 343.988,170.684 347,168.5C 349.649,170.316 352.149,172.316 354.5,174.5C 355.497,181.134 355.83,187.8 355.5,194.5C 378.169,194.667 400.836,194.5 423.5,194C 428.584,192.623 433.251,190.457 437.5,187.5C 438.833,231.833 438.833,276.167 437.5,320.5C 433.251,317.543 428.584,315.377 423.5,314C 400.836,313.5 378.169,313.333 355.5,313.5C 355.83,320.2 355.497,326.866 354.5,333.5C 352.149,335.684 349.649,337.684 347,339.5C 344.344,337.514 341.677,335.514 339,333.5C 338.5,326.842 338.334,320.175 338.5,313.5C 261.833,313.5 185.167,313.5 108.5,313.5C 108.83,320.2 108.497,326.866 107.5,333.5C 105.149,335.684 102.649,337.684 100,339.5C 96.6559,337.655 93.6559,335.322 91,332.5C 90.5005,326.175 90.3338,319.842 90.5,313.5C 67.8309,313.333 45.1642,313.5 22.5,314C 17.5817,315.126 13.2483,317.292 9.5,320.5C 8.16667,276.167 8.16667,231.833 9.5,187.5C 13.2483,190.708 17.5817,192.874 22.5,194C 45.1642,194.5 67.8309,194.667 90.5,194.5C 90.3338,188.158 90.5005,181.825 91,175.5C 93.9254,173.286 96.7587,170.953 99.5,168.5C 102.45,170.115 105.116,172.115 107.5,174.5C 108.497,181.134 108.83,187.8 108.5,194.5 Z"/></g>
<g><path style="opacity:1" fill="#4b4a4c" d="M -0.5,169.5 C 0.182312,227.354 0.848979,285.354 1.5,343.5C 0.833333,342.5 0.166667,341.5 -0.5,340.5C -0.5,283.5 -0.5,226.5 -0.5,169.5 Z"/></g>
<g><path style="opacity:1" fill="#0b5736" d="M 362.5,170.5 C 364.446,175.396 365.113,180.729 364.5,186.5C 363.79,181.268 363.123,175.935 362.5,170.5 Z"/></g>
<g><path style="opacity:1" fill="#095d38" d="M 115.5,170.5 C 117.446,175.396 118.113,180.729 117.5,186.5C 116.79,181.268 116.123,175.935 115.5,170.5 Z"/></g>
<g><path style="opacity:1" fill="#454346" d="M 8.5,186.5 C 7.50126,230.997 7.16793,275.664 7.5,320.5C 6.1691,275.665 6.1691,230.665 7.5,185.5C 8.10667,185.624 8.44001,185.957 8.5,186.5 Z"/></g>
<g><path style="opacity:1" fill="#bebdbe" d="M 8.5,186.5 C 9.16667,186.5 9.5,186.833 9.5,187.5C 8.16667,231.833 8.16667,276.167 9.5,320.5C 8.83333,321.833 8.16667,321.833 7.5,320.5C 7.16793,275.664 7.50126,230.997 8.5,186.5 Z"/></g>
<g><path style="opacity:1" fill="#9a999a" d="M 437.5,187.5 C 437.56,186.957 437.893,186.624 438.5,186.5C 439.833,231.5 439.833,276.5 438.5,321.5C 437.893,321.376 437.56,321.043 437.5,320.5C 438.833,276.167 438.833,231.833 437.5,187.5 Z"/></g>
<g><path style="opacity:1" fill="#c2c1c2" d="M 338.5,175.5 C 338.5,182.167 338.5,188.833 338.5,195.5C 261.665,195.833 184.998,195.499 108.5,194.5C 184.833,194.5 261.167,194.5 337.5,194.5C 337.177,187.978 337.51,181.645 338.5,175.5 Z"/></g>
<g><path style="opacity:1" fill="#0589c0" d="M 330.5,336.5 C 329.514,332.03 329.181,327.363 329.5,322.5C 258.833,322.5 188.167,322.5 117.5,322.5C 117.819,327.363 117.486,332.03 116.5,336.5C 116.5,331.5 116.5,326.5 116.5,321.5C 187.833,321.5 259.167,321.5 330.5,321.5C 330.5,326.5 330.5,331.5 330.5,336.5 Z"/></g>
<g><path style="opacity:1" fill="#0685ba" d="M 424.5,323.5 C 404.527,322.548 384.527,322.215 364.5,322.5C 364.819,327.363 364.486,332.03 363.5,336.5C 363.5,331.5 363.5,326.5 363.5,321.5C 383.169,321.333 402.836,321.5 422.5,322C 423.416,322.278 424.082,322.778 424.5,323.5 Z"/></g>
<g><path style="opacity:1" fill="#009dde" d="M 116.5,336.5 C 117.486,332.03 117.819,327.363 117.5,322.5C 188.167,322.5 258.833,322.5 329.5,322.5C 329.181,327.363 329.514,332.03 330.5,336.5C 335.494,341.421 340.994,345.755 347,349.5C 352.676,345.317 358.176,340.983 363.5,336.5C 364.486,332.03 364.819,327.363 364.5,322.5C 384.527,322.215 404.527,322.548 424.5,323.5C 428.976,324.571 432.643,326.904 435.5,330.5C 436.892,332.557 437.559,334.891 437.5,337.5C 436.799,341.808 436.466,346.141 436.5,350.5C 432.884,377.847 424.384,403.513 411,427.5C 357.664,509.998 281.831,544.831 183.5,532C 99.512,513.005 43.6787,462.838 16,381.5C 13.4632,371.982 11.6299,362.315 10.5,352.5C 9.78754,345.857 9.45421,339.191 9.5,332.5C 12.8503,327.325 17.5169,323.825 23.5,322C 43.1638,321.5 62.8305,321.333 82.5,321.5C 82.3341,326.511 82.5007,331.511 83,336.5C 87.8774,341.046 93.044,345.213 98.5,349C 99.5,349.667 100.5,349.667 101.5,349C 106.373,344.622 111.373,340.455 116.5,336.5 Z"/></g>
<g><path style="opacity:1" fill="#0c6a93" d="M 435.5,330.5 C 437.988,332.056 438.988,334.389 438.5,337.5C 438.229,342.036 437.562,346.369 436.5,350.5C 436.466,346.141 436.799,341.808 437.5,337.5C 437.559,334.891 436.892,332.557 435.5,330.5 Z"/></g>
<g><path style="opacity:1" fill="#fdfdfd" d="M -0.5,344.5 C 0.407598,348.851 1.4076,353.184 2.5,357.5C 2.32526,359.621 2.65859,361.621 3.5,363.5C 4.25067,370.503 5.91733,377.17 8.5,383.5C 10.6405,392.089 13.4738,400.422 17,408.5C 19.5266,413.553 22.0266,418.553 24.5,423.5C 24.427,425.027 25.0937,426.027 26.5,426.5C 27.9044,428.255 28.9044,430.255 29.5,432.5C 29.427,434.027 30.0937,435.027 31.5,435.5C 37.137,443.322 42.637,451.322 48,459.5C 88.3339,508.587 140.167,536.587 203.5,543.5C 135.5,543.5 67.5,543.5 -0.5,543.5C -0.5,477.167 -0.5,410.833 -0.5,344.5 Z"/></g>
<g><path style="opacity:1" fill="#878687" d="M -0.5,340.5 C 0.166667,341.5 0.833333,342.5 1.5,343.5C 1.83333,348.167 2.16667,352.833 2.5,357.5C 1.4076,353.184 0.407598,348.851 -0.5,344.5C -0.5,343.167 -0.5,341.833 -0.5,340.5 Z"/></g>
<g><path style="opacity:1" fill="#0b729e" d="M 9.5,332.5 C 9.45421,339.191 9.78754,345.857 10.5,352.5C 9.00333,348.777 8.33666,344.777 8.5,340.5C 8.50255,337.645 8.83588,334.978 9.5,332.5 Z"/></g>
<g><path style="opacity:1" fill="#fdfdfd" d="M 446.5,345.5 C 446.5,411.5 446.5,477.5 446.5,543.5C 377.833,543.5 309.167,543.5 240.5,543.5C 319.787,534.714 379.453,496.047 419.5,427.5C 420.906,427.027 421.573,426.027 421.5,424.5C 424.985,416.883 428.318,409.216 431.5,401.5C 433.245,399.967 434.245,397.967 434.5,395.5C 434.232,393.901 434.566,392.568 435.5,391.5C 437.277,388.495 438.277,385.162 438.5,381.5C 440.707,375.809 442.041,369.809 442.5,363.5C 443.924,361.485 444.59,359.152 444.5,356.5C 444.116,352.511 444.783,348.845 446.5,345.5 Z"/></g>
<g><path style="opacity:1" fill="#777677" d="M 444.5,356.5 C 444.59,359.152 443.924,361.485 442.5,363.5C 442.41,360.848 443.076,358.515 444.5,356.5 Z"/></g>
<g><path style="opacity:1" fill="#7e7c7e" d="M 3.5,363.5 C 5.76831,369.906 7.43497,376.573 8.5,383.5C 5.91733,377.17 4.25067,370.503 3.5,363.5 Z"/></g>
<g><path style="opacity:1" fill="#848385" d="M 438.5,381.5 C 438.277,385.162 437.277,388.495 435.5,391.5C 435.723,387.838 436.723,384.505 438.5,381.5 Z"/></g>
<g><path style="opacity:1" fill="#838284" d="M 434.5,395.5 C 434.245,397.967 433.245,399.967 431.5,401.5C 431.755,399.033 432.755,397.033 434.5,395.5 Z"/></g>
<g><path style="opacity:1" fill="#818081" d="M 24.5,423.5 C 25.9063,423.973 26.573,424.973 26.5,426.5C 25.0937,426.027 24.427,425.027 24.5,423.5 Z"/></g>
<g><path style="opacity:1" fill="#878788" d="M 421.5,424.5 C 421.573,426.027 420.906,427.027 419.5,427.5C 419.427,425.973 420.094,424.973 421.5,424.5 Z"/></g>
<g><path style="opacity:1" fill="#8f8e90" d="M 29.5,432.5 C 30.9063,432.973 31.573,433.973 31.5,435.5C 30.0937,435.027 29.427,434.027 29.5,432.5 Z"/></g>
</svg>
